!!!OTL: "Vorsicht" MIS LIEB WENN DU ZUR CHILCHE THUST GA
!!!ARE: Europa, Mitteleuropa, Schweiz; Elsass
!!!SCT: Z1222
!!!YEM: Copyright 1995, estate of Helmut Schaffrath.
**kern
*ICvox
*Ivox
*M3/4
*k[b-e-]
*B-:
{2.b-
=1
4dd
4ff
4ee-
=2
4ee-
4dd
4cc
=3
4b-
4a
4g
=4
2f
4r}
=5
{4cc
4dd
4ee-
=6
4dd
4ee-
4ff
=7
2.cc}
=8
{2.b-
=9
4dd
4ee-
4ff
=10
4ee-
4dd
4cc
=11
4b-
4a
4g
=12
2f
4r}
=13
{2.b-
=14
4cc
4dd
4ee-
=15
4dd
4ee-
4ff
=16
2.b-}
==
!!!AGN: Liebes - Lied
!!!ONB: ESAC (Essen Associative Code) Database: ZUCCAL
!!!AMT: simple triple
!!!AIN: vox
!!!EED: Helmut Schaffrath
!!!EEV: 1.0
*-
